icons/fm-square-outlined.svg

<svg
  viewBox="0 0 16 16"
  xmlns="http://www.w3.org/2000/svg"
>
  <path
    d="M 3.5555395,0 C 1.5918895,0 -1.94824e-5,1.592 -1.94824e-5,3.55556 V 12.4444 C -1.94824e-5,14.408 1.5918895,16 3.5555395,16 h 8.8888795 c 1.9636,0 3.5556,-1.592 3.5556,-3.5556 V 3.55556 C 16.000019,1.592 14.408019,0 12.444419,0 Z m 0,1.77778 h 8.8888795 c 0.9823,0 1.7778,0.79555 1.7778,1.77778 v 8.88884 c 0,0.9823 -0.7955,1.7778 -1.7778,1.7778 H 3.5555395 c -0.98187,0 -1.77778,-0.7955 -1.77778,-1.7778 V 3.55556 c 0,-0.98223 0.79591,-1.77778 1.77778,-1.77778 z"
  />
</svg>

<svg
  viewBox="0 0 16 16"
  xmlns="http://www.w3.org/2000/svg"
>
  <path
    d="M3.55562 0C1.59197 0 6.10352e-05 1.592 6.10352e-05 3.55556V12.4444C6.10352e-05 14.408 1.59197 16 3.55562 16H12.4445C14.4081 16 16.0001 14.408 16.0001 12.4444V3.55556C16.0001 1.592 14.4081 0 12.4445 0H3.55562ZM3.55562 1.77778H12.4445C13.4268 1.77778 14.2223 2.57333 14.2223 3.55556V12.4444C14.2223 13.4267 13.4268 14.2222 12.4445 14.2222H3.55562C2.57375 14.2222 1.77784 13.4267 1.77784 12.4444V3.55556C1.77784 2.57333 2.57375 1.77778 3.55562 1.77778Z"
  />
</svg>
